X:1
T:Vals efter Nils Jonsson
R:Vals
S:efter Nils Jansson
O:Västerbotten, Hällnäs % på smus.se står "Hallnäs"
O:Degerfors, Edlunda
B:http://www.smus.se/earkiv/fmk/browselarge.php?lang=sw&katalogid=Upprop+19&bildnr=00037
L:1/8
M:3/4
Z:Nils L
Q:180
%%printtempo 0
K:Dm
AA | A2 d2 d^c | d2 e2 fg | (f2 e2) "^\#?"^c2 | e4 a2 | f2 dd (df) | e2 ^c2 ce | A2 d2 d2 | d2 z2 ::
fg | a2 [fA]2 [fA]2 | f2 g2 a2 | a2 g2 e2 | c2 z2 eg | {fg}Tf2 d2 d2 | (e2 ^c2) c2 | (A2 d2) d2 | d2 z2 :|

